src/images/documents/svg/pdf.svg

<svg fill="none" height="120" viewBox="0 0 80 120" width="80" xmlns="http://www.w3.org/2000/svg"><path d="m1 119v-118h58.5858l19.4142 19.4142v98.5858z" fill="#fff" stroke="#d32205" stroke-width="2"/><g fill="#d32205"><path d="m80 20-20-20v20z"/><path d="m9.99951 60h59.9997v5h-59.9997z"/><path d="m9.99951 70h59.9997v5h-59.9997z"/><path d="m9.99951 80h30v5h-30z"/><path d="m9.99951 28h60v27h-60z"/></g><path d="m29.8225 43.5652h-3.1702v-1.9995h3.1702c.4899 0 .8887-.0798 1.1963-.2393.3076-.1652.5326-.3931.675-.6836.1425-.2905.2137-.6181.2137-.9826 0-.3703-.0712-.715-.2137-1.034-.1424-.319-.3674-.5753-.675-.769s-.7064-.2905-1.1963-.2905h-2.2815v10.4333h-2.5635v-12.4414h4.845c.9741 0 1.8087.1766 2.5037.5298.7007.3475 1.2361.8288 1.6064 1.4441.3703.6152.5554 1.3187.5554 2.1106 0 .8032-.1851 1.4982-.5554 2.0849-.3703.5868-.9057 1.0397-1.6064 1.3587-.695.319-1.5296.4785-2.5037.4785zm10.2539 4.4348h-2.7087l.0171-1.9995h2.6916c.6722 0 1.239-.151 1.7005-.4529.4614-.3076.8089-.7548 1.0424-1.3415.2393-.5868.3589-1.296.3589-2.1277v-.6067c0-.638-.0683-1.1992-.2051-1.6834-.131-.4842-.3275-.8915-.5896-1.2219-.262-.3304-.5839-.5782-.9655-.7434-.3817-.1709-.8203-.2563-1.3159-.2563h-2.7857v-2.0081h2.7857c.8317 0 1.5922.1424 2.2814.4272.695.2792 1.296.6808 1.803 1.2049s.8972 1.1507 1.1707 1.8799c.2791.7234.4187 1.5295.4187 2.4182v.5896c0 .8829-.1396 1.689-.4187 2.4182-.2735.7291-.6637 1.3558-1.1707 1.8799-.5013.5184-1.1023.92-1.803 1.2048-.6949.2791-1.464.4187-2.3071.4187zm-1.2561-12.4414v12.4414h-2.5635v-12.4414zm11.3818 0v12.4414h-2.5634v-12.4414zm4.9561 5.3149v1.9995h-5.6567v-1.9995zm.5981-5.3149v2.0081h-6.2548v-2.0081z" fill="#fff"/></svg>

<svg width="80" height="120" viewBox="0 0 80 120" fill="none" xmlns="http://www.w3.org/2000/svg">
<path d="M1.00073 119V1H59.5865L79.0007 20.4142V119H1.00073Z" fill="white" stroke="#0065BD" stroke-width="2"/>
<path d="M80.001 20L60.001 0V20H80.001Z" fill="#0065BD"/>
<rect x="10.0002" y="60" width="59.9997" height="5" fill="#0065BD"/>
<rect x="10.0002" y="70" width="59.9997" height="5" fill="#0065BD"/>
<rect x="10.0002" y="80" width="30" height="5" fill="#0065BD"/>
<rect x="10.0002" y="28" width="60" height="27" fill="#0065BD"/>
<path d="M29.8232 43.5652H26.6531V41.5657H29.8232C30.3132 41.5657 30.7119 41.4859 31.0195 41.3264C31.3271 41.1612 31.5522 40.9333 31.6946 40.6428C31.837 40.3523 31.9082 40.0247 31.9082 39.6602C31.9082 39.2899 31.837 38.9452 31.6946 38.6262C31.5522 38.3072 31.3271 38.0509 31.0195 37.8572C30.7119 37.6635 30.3132 37.5667 29.8232 37.5667H27.5417V48H24.9783V35.5586H29.8232C30.7974 35.5586 31.6319 35.7352 32.3269 36.0884C33.0276 36.4359 33.5631 36.9172 33.9333 37.5325C34.3036 38.1477 34.4888 38.8512 34.4888 39.6431C34.4888 40.4463 34.3036 41.1413 33.9333 41.728C33.5631 42.3148 33.0276 42.7677 32.3269 43.0867C31.6319 43.4057 30.7974 43.5652 29.8232 43.5652ZM40.0771 48H37.3684L37.3855 46.0005H40.0771C40.7493 46.0005 41.3162 45.8495 41.7776 45.5476C42.239 45.24 42.5865 44.7928 42.8201 44.2061C43.0593 43.6193 43.179 42.9101 43.179 42.0784V41.4717C43.179 40.8337 43.1106 40.2725 42.9739 39.7883C42.8429 39.3041 42.6463 38.8968 42.3843 38.5664C42.1222 38.236 41.8004 37.9882 41.4187 37.823C41.037 37.6521 40.5984 37.5667 40.1028 37.5667H37.3171V35.5586H40.1028C40.9345 35.5586 41.695 35.701 42.3843 35.9858C43.0793 36.265 43.6803 36.6666 44.1873 37.1907C44.6943 37.7148 45.0845 38.3414 45.3579 39.0706C45.637 39.794 45.7766 40.6001 45.7766 41.4888V42.0784C45.7766 42.9613 45.637 43.7674 45.3579 44.4966C45.0845 45.2257 44.6943 45.8524 44.1873 46.3765C43.686 46.8949 43.085 47.2965 42.3843 47.5813C41.6893 47.8604 40.9202 48 40.0771 48ZM38.821 35.5586V48H36.2576V35.5586H38.821ZM50.2029 35.5586V48H47.6394V35.5586H50.2029ZM55.1589 40.8735V42.873H49.5022V40.8735H55.1589ZM55.7571 35.5586V37.5667H49.5022V35.5586H55.7571Z" fill="white"/>
</svg>
